X:23
T:Pegen kaer ez eo Mamm Jezuz
M:6/8
L:1/8
K:G
"^Refrain"zzD GFE|D2D GFE|D2DG2E|D2B, CDE|D2DG2A|B2cA2B|G3"^FIN"||
DEF|G3DEF|G3FGA|G2DB,2C|D3DGF|E2AG2F|G3||
